MML@v15l64d&d&d&d&d&d&d&d&d&d&d&d&d&d&d&d&d&d&d&d&d&d&d&d&d&d&d&d&d&d&d&d&d&d&d&d&d&d&d&d&d&d&d&d&d&d&d&dt40v0c4t130v15l16<dd>d8<a8.g+8g8f8dfgcc>d8<a8.g+8g8f8dfg<bb>>d8<a8.g+8g8f8dfg<a+a+>>d8<a8.g+8g8f8dfgdd>d8<a8.g+8g8f8dfgcc>d8<a8.g+8g8f8dfg<bb>>d8<a8.g+8g8f8dfg<a+a+>>d8<a8.g+8g8f8dfgdd>d8<a8.g+8g8f8dfgcc>d8<a8.g+8g8f8dfg<bb>>d8<a8.g+8g8f8dfg<a+a+>>d8<a8.g+8g8f8dfg>f8ff8f8f8d8d4&df8ff8g8g+8gfdfl8g.ff16fgg+ab+a.>ddl16d<a>dc2&cv13<<dd>d8<a8.g+8g8f8dfgcc>d8<a8.g+8g8f8dfg<bb>>d8<a8.g+8g8f8dfg<a+a+r8>a8.g+8g8f8dfgl8<a+a+a+16a+a+a+16a+a+a+>ccc16ccc16cccddd16ddd16dddc+c+c+16c+d+d+16d+d+d+<a+a+a+16a+a+a+16a+a+a+>ccc16ccc16cccddd16ddd16dddc+c+c+16c+d+d+16d+d+d+<a+a+a+16a+a+a+16a+a+a+>ccc16ccc16cccddd16ddd16dddc+c+c+16c+d+d+16d+d+d+<a+a+a+16a+a+a+16a+a+a+>ccc16ccc16cccddd16ddd16dddc+c+c+16c+d+d+16d+d+d+v15d16d16>d<a.g+gfl16dfgcc>d8<a8.g+8g8f8dfg<bb>>d8<a8.g+8g8f8dfg<a+a+>>d8<a8.g+8g8f8dfgdd>d8<a8.g+8g8f8dfgcc>d8<a8.g+8g8f8dfg<bb>>d8<a8.g+8g8f8dfg<a+a+>>d8<a8.g+8g8f8dfg>d1,v13<<d2.rl16ddr2r4.ccr2r4.<bbr2r4.a+a+r4r>ccl8r.c4dddd16ddd16ddcccc16ccc16cc<bbbb16bbb16bba+a+a+a+16>ccc16l64rc+dd+eff+gg+aa+b>cc+dd+l16>dd>d8<a8.g+8g8f8dfgcc>d8<a8.g+8g8f8dfg<bb>>d8<a8.g+8g8f8dfg<a+a+>>d8<a8.g+8g8f8dfgl8<<dafa16dd16afacgeg16cc16gegc-geg16<bb16>gegn22fdf16cc16gegdafa16dd16afacgeg16cc16gegc-geg16<bb16>gegn22fdf16cc16gegn22fdf16<a+a+16>fdfcgeg16cc16gegdafa16dd16afac+afa16d+d+16a+f+a+n22fdf16<a+a+16>fdfcgeg16cc16gegdafa16dd16afac+afa16d+d+16a+f+a+n22fdf16<a+a+16>fdfcgeg16cc16gegdafa16dd16afac+afa16d+d+16a+f+a+n22fdf16<a+a+16>fdfcgeg16cc16gegdafa16dd16afac+afl16ad+8d+a+8f+8a+8ddr2r4.ccr2r4.<bbr2r4.a+a+r4r>ccr7rl64c+dd+eff+gg+aa+b>cc+dd+l16>dd>d8<a8.g+8g8f8dfgcc>d8<a8.g+8g8f8dfg<bb>>d8<a8.g+8g8f8dfg<a+a+>>d8<a8.g+8g8f8dfg<f1,v13<f2.l1.rrrrrr2l8<ccdddd16ddd16ddcccc16ccc16cc<bbbb16bbb16bba+a+a+a+16>ccc16ccl1rrrrv15l8>>aa16aaagg4&g16aa16aaga>d<a16g>d<agfb+gfeddl16cd8>c2&cr2<fdfgg+gfdl32g+gfdf8g2l16&gg+8ab+8ag+gfdel8fga>cc+<g+l16g+gfg2&gl8<fga>fl4edefgea2l16ag+gf+fed+dc+4&c+c+d8d+2r2fdfgg+gfdl32g+gfdf8g2l16&gg+8ab+8ag+gfdel8fga>cc+<g+l16g+gfg2&gl8<fga>fl4edefgea2l16ag+gf+fed+dc+4&c+c+d8d+2v13<<aar2.r8ggr2.r8ggr2.r8ffr4rggl8r.ccdddd16ddd16ddcccc16ccc16cc<bbbb16bbb16bba+a+a+a+16>ccc16ccd1;