MML@v15l64o2a&a&a&a&a&a&a&a&a&a&a&a&a&a&a&a&a&a&a&a&a&a&a&a&a&a&a&a&a&a&a&a&a&a&a&a&a&a&a&a&a&a&a&a&a&a&a&at40r4t165v13l8a>fdl16f<a8a>f8aarar8ar<a8>f8d8f<a8a>f8bbrbr8br<a8>f8d8f<a8a>f8aarar8ar<a8>f8d8f<a8a>f8bbrbr8br<a+8>f8d8f<a+8a+>f8aarar8ar<a+8>f8d8f<a+8a+>f8>c+c+rc+r8c+r<<a8>f8d8f<a8a>f8aarar8ar<a8>f8d8f<a8a>f8a8rar8arl8<dadac+g+c+g+ebebd+a+d+a+dadac+g+c+g+ebebd+a+d+a+v15>av13dv15fv13dv15g+v13c+v15ev13c+v15bv13ev15g+v13ev15gv13d+v15a+v13d+v15av13dv15fv13dv15g+v13c+v15ev13c+v15bv13ev15g+v13ev15gv13d+rd+v15av13dv15fv13dv15g+v13c+v15ev13c+v15bv13ev15g+v13ev15gv13d+v15a+v13d+v15av13dv15fv13dv15g+v13c+v15ev13c+v15bv13ev15g+v13ev15gv13d+<a+4a+>fdaa+fdfdaf>cd<afdn34fdaa+fd>cd<afd<a>dfan34fdaa+fdfdaf>cd<afdn34fdaa+fd>cd<afd<arl16>>d<afdn34dfaa+fdn34cegbb+gecdfa>cd<afdc-dfabfd<ba+>dfaa+fdn34cegbb+gecdfa>cd<afd>d<ab+fadfcn34dfaa+fdn34cegbb+gecdfa>cd<afdc-dfabfd<ba+>dfaa+fdn34cegbb+gecdfa>cd<afd>d<ab+fadfc<a8>f8d8f<a8a>f8aarar8ar<a8>f8d8f<a8a>f8bbrbr8br<a8>f8d8f<a8a>f8aarar8ar<a8>f8d8f<a8a>f8bbrbr8br<a+8>f8d8f<a+8a+>f8aarar8ar<a+8>f8d8f<a+8a+>f8>c+c+rc+r8c+r<<a8>f8d8f<a8a>f8aarar8ar<a8>f8d8f<a8a>f8a8rar8ar.a1&a.a8,v15f2.rl16fd<a>fd<a>fd<a>fd<a>eerer8erfd<a>fd<a>fd<a>fd<a>ggrgr8grfd<a>fd<a>fd<a>fd<a>eerer8erfd<a>fd<a>fd<a>fd<a>ggrgr8grfdn46fdn46fdn46fdn46eerer8erfdn46fdn46fdn46fdn46ggrgr8grfd<a>fd<a>fd<a>fd<a>eerer8erfd<a>fd<a>fd<a>fd<a>e8rer8erl2<feg+gl8rfrfrererg+rg+rgra+v13<dadac+g+c+g+ebebd+a+d+a+dadac+g+c+g+ebebd+a+d+a+dadac+g+c+g+ebebd+a+d+a+dadac+g+c+g+ebebd+a+d+4v15>>drarerarfrgagr>crd<a>efef16e16dc<ab+gaf2drarerarfrgagr>crd<a>efef16e16dcd1<drarerarfrgagr>crd<a>efef16e16dc<ab+gaf2drarerarfrgagr>crd<a>efel16fed8c8d1<fd<a>fd<a>fd<a>fd<a>eerer8erfd<a>fd<a>fd<a>fd<a>ggrgr8grfd<a>fd<a>fd<a>fd<a>eerer8erfd<a>fd<a>fd<a>fd<a>ggrgr8grfdn46fdn46fdn46fdn46eerer8erfdn46fdn46fdn46fdn46ggrgr8grfd<a>fd<a>fd<a>fd<a>eerer8erfd<a>fd<a>fd<a>fd<a>e8rer8er8l32rf1&fd8,v13o2d2.rd.a>d8<e2d.a>d8<g2d.a>d8<e2d.a>d8<g2<a+.>fa+8e2<a+.>fa+8>c+2<d.a>d8<e2d.a>d8l2<gfeg+gl8rfrfrererg+rg+rgrgrfrfrererg+rg+rgrgrfrfrererg+rg+rgrg>b+<fn44f>b<e>g<en50g+>bn32a+<gn49g>b+<fn44f>b<e>g<en50g+>bn32a+<gg4n22fdfcgegdafac-gdgn22fdfcgegdafadafan22fdfcgegdafac-gdgn22fdfcgegdafadafan22fdfcgegdafac-gdgn22fdfcgegdafadafan22fdfcgegdafac-gdgn22fdfcgegdafadafad4.a4>d<e.e.ed4.a4>d<g.g.gd4.a4>d<e.e.ed4.a4>d<g.g.g<a+4.>f4a+e.e.e<a+4.>f4a+>c+.c+.c+<d4.a4>d<e.e.ed4.a4>d<g.g.gd&d1d;